X:1
T:Susanne un iour
T:Severin Cornet
T:Source : La fleur des chansons à 3---Louvain---P.Phalèse---1574. Editor : André Vierendeels (03/08/18) Notes : Original clefs : G2, C2, C3 Original note values have been halved Editorial accidentals above the staff
T:Susanne un iour
T:©
T:©
T:©
T:©
T:©
T:©
C:Severin Cornet
Z:©
%%score [ 1 2 3 ]
L:1/8
Q:1/4=120
M:2/2
K:F
V:1 treble nm="Soprano" snm="S"
V:2 treble nm="Alto" snm="A"
V:3 treble-8 nm="Tenor" snm="T"
V:1
 G4 =B2 c2 | d2 d2 d2 d2 | f6 e2 | d6 c2 | z2 f2 f2 d2 | g2 f2 _e4 | d8 | z2 d2 d2 d2 | %8
w: Su- san- ne'un|iour, d'a- mour sol-|li- ci-|té- e,|d'a- mour sol-|li- ci- té-|e,|par deux viel-|
 c2 B2 A2 G2 | c4 A4 | G4 z2 G2 | =B2 c2 d4- | d2 e2 f3 e | d2 c2 B2 G2 | c4 F2 f2 | d2 d2 g2 f2 | %16
w: lars con- voi- tans|sa beau-|té, fut|en son cueur|_ tri- st'et _|_ des- con- for-|té- e, tri-|st't des- con- for-|
 _e4 d4- | d4 z2 d2 | d2 d2 c2 B2 | A2 G2 c4 | A4 G4- | G4 z2 G2- | G2 G2 G4 | F4 z2 G2 | %24
w: té- e,|_ voy-|ant l'ef- fort faict|à sa cha-|ste- té,|_ el-|* le leur|dit: si|
 A2 c2 B2 A2 | G2 d2 d2 d2 | ^c2 c2 d2 f2 | ed d3 c/B/ c2 | d2 =B2 c2 c2 | A4 z2 G2- | G2 c4 c2 | %31
w: par des- loy- au-|té de ce corps|mien vous a- vez|io- ys- san- * * *|ce, c'est fait de|moy, c'est|_ fait de|
 =B8 | z4 z2 G2 | B2 A2 =B2 c2 | d3 c B2 AG | A4 A4- | A4 z2 c2 | c2 =B2 c2 B2- | B2 A4 A2 | %39
w: moy,|si|ie fais re- si-|sten- * * * *|* ce,|_ vous|me fe- rez mou-|* rir en|
 c3 B A2 A2 | G4 z2 G2 | B2 c2 d2 c2 | c2 d2 _e4 | e2 d2 c4 | B4 z2 d2 | d2 d2 c4- | c2 B2 A2 G2 | %47
w: des- * * hon-|neur, mais|i'ay- me mieux pe-|rir en in-|* no- cen-|ce, que|d'of- fen- ser|_ par pe- ché,|
 c4 A4 | G4 z2 d2 | d2 d2 c2 B2 | A2 G2 c4- | c4 A4 | =B8 |] %53
w: le Sei-|gneur, que|d'of- fen- ser par|pe- ché le|_ Sei-|gneur.|
V:2
 z8 | D4 ^F2 G2 | A2 A2 A2 A2 | B3 A G4 | F2 A2 A2 B2 | cB B3 A/G/ A2 | B4 z2 B2 | G2 B2 B,CDE | %8
w: |Su- san- ne'un|iour, d'a- mour sol-|li- ci- té-|e, d'a- mour sol-|li- ci- té- * * *|e, par|deux viel- lars _ _ _|
 F2 D2 D2 B2 | A2 G3 ^F/E/ F2 | G8 | z4 D4 | ^F2 G2 A2 D2 | F2 F2 GG B2- | B2 A2 z2 A2 | %15
w: _ con- voi- tans|sa beau- * * *|té,|fut|en son cueur tri-|st'et des- con- for- té-|* e, tri-|
 A2 B2 cB B2- | BA/G/ A2 B4 | z2 B2 G2 B2 | B,CDE F2 D2 | D2 B2 A2 G2- | G^F/E/ F2 G2 _E2- | %21
w: st'et des con- for- té-|* * * * e,|voy- ant l'ef-|fort _ _ _ _ faict|à sa cha- ste-|* * * * té, el-|
 E2 _E2 E4 | D4 z2 C2 | D2 F2 E2 D2 | CDEF G2 F2 | B3 A/G/ F2 G2 | A2 E2 ^F2 A2 | %27
w: * le leur|dit: si|par des- loy- au-|té _ _ _ _ de|ce _ _ _ corps|mien vous a- vez|
"^-natural" GG F3 E/D/ E2 | D2 D2 E2 G2- | G2 F2 z2 D2 | EF G4 F2 | G4 z2 G2 | F2 F2 D2 E2 | %33
w: io- ys- san- * * *|ce, c'est fait de|_ moy, c'est|fait _ _ de|moy, si|ie fais re- si-|
 F4 D2 _E2 | D2 D2 G,2 G2 | F4 F4 | z2 A2 A2 A2 | G4 G4- | G2 F4 D2 | E2 G3 ^F/E/ F2 | G4 z2 B2 | %41
w: sten- ce, si|ie fais re- si-|ten- ce,|vous me fe-|rez mou-|* rir en|des- hon- * * *|neur, mais|
 G2 A2 B2 G2 | A2 A2 B2 A2 | G/F/G/A/ B3 A/G/ A2 | B4 z2 G2 | B2 B2 A2 G2 | A2 F2 c3 B | %47
w: i'ay- me mieux pe-|rir en in- no|cen- * * * * * * *|ce, que|d'of- fen- ser par|pe- ché, le _|
"^#" A2 G3 F/E/ F2 | G2 G2 B2 B2 | F2 B2 A2 G2 | c3 B/A/ GE A2- | A2 G3 ^F/E/ F2 | G8 |] %53
w: Sei- * * * *|gneur, que d'of- fen-|ser par pe- ché|le _ _ _ _ _|_ Sei- * * *|gneur.|
V:3
 z8 | z8 | z8 | G4 =B2 c2 | d2 d2 d2 d2 | _e2 d2 c4 | B8 | z2 B2 G2 B2 | F2 f2 f2 _e2 | c4 d4 | %10
w: |||Su- san- ne'un|iour, d'a- mour sol-|li- ci- té-|e,|par deux viel-|lars con- voi- tans|sa beau-|
 G2 G2 =B2 c2 | d2 e2 f3 e | d2 c4 B2- | B2 A2 G4 | F2 f2 d3 e | ^f2 g2 _e2 d2 | c4 B4- | %17
w: té,fut en son cueur|tri- st'et des- con-|for- té- *||e, tri- st'et _|_ des- con- for-|té- e,|
 B4 z2 B2 | G2 B2 F2 f2 | f2 _e2 c4 | d4 G2 c2- | c2 c2 c4 |"^-natural" =B2 B2 c2 _e2 | %23
w: _ voy-|ant l'ef- fort fait|à ss cha-|ste- té, el-|* le leur|dit: si par des-|
 BcdA c2 B2 | A4 z2 d2 | _ed/c/Bc d2 B2 | A2 A2 d2 d2 | G2 B2 A4 | d2 G2 c2 c2 | d4 z2 G2 | c4 A4 | %31
w: loy- * * * * au-|té de|ce _ _ _ _ _ corps|mien vous a- vez|io- ys- san-|ce, c'est fait de|moy, c'est|fait de|
 G4 z2 G2 | B2 A2 =B2 c2 | d4 G2 g2 | f2 f2 d2 _e2 | d4 d4 | f4 f2 f2 | e4 _e4 | d6 f2 | c4 d4 | %40
w: moy, si|ie fais re- si-|sten- ce,, si|ie fais re- si-|sten- ce,|vous me fe-|rez mou-|rir en|des- hon-|
 G8 | z2 f2 d2 e2 | f2 d2 g2 f2 | _e2 B2 f2 f2 | z2 g2 b2 b2 | Bcde f2 e2 | f2 d2 c4- | c4 d4 | %48
w: neur,|mais i'ay- me|mieux pe- rrir en|in- no- cen- ce,|que d'of- fen-|ser _ _ _ _ par|pe- ché le|_ Sei-|
 G4 z2 G2 | B2 B2 F2 G2 | ABcd e2 f2 | c4 d4 | G8 |] %53
w: gneur, que|d'of- fen- ser par|pe- * * * * ché,|le Sei-|gneur.|

